X:1
T:Westron Wynde
M:4/4
L:1/4
K:F
 G3/2 A/2 B B| A3/4- B/4A/2-G/2 F D| G3/2 D/2 F G| F3 B| A3/2 G/2 F D|\
 F G F B| A G/2G/2 d3/2 d/2| A2 z2|
